data/icon-01.svg

<svg id="_1._GlayWorld" data-name="1. GlayWorld" xmlns="http://www.w3.org/2000/svg" viewBox="0 0 800 800"><defs><style>.cls-1{fill:#5b5b66}.cls-2{fill:#fff}</style></defs><title>icon</title><path class="cls-1" d="M0 0h800v800H0z"/><circle class="cls-1" cx="400" cy="400" r="400"/><path class="cls-2" d="M400.133 117.109c-156.182 0-282.792 126.652-282.792 282.885S243.951 682.88 400.133 682.88s282.792-126.652 282.792-282.885-126.61-282.886-282.792-282.886zm-96.149 369.873h-74.233v-74.258h74.233zm0-95.474h-74.233v-74.257h74.233zm0-95.474h-74.233v-74.257h74.233z"/></svg>

<svg id="_1._GlayWorld" data-name="1. GlayWorld" xmlns="http://www.w3.org/2000/svg" viewBox="0 0 800 800"><defs><style>.cls-1{fill:#5b5b66;}.cls-2{fill:#fff;}</style></defs><title>icon</title><rect class="cls-1" width="800" height="800"/><circle class="cls-1" cx="400" cy="400" r="400"/><path class="cls-2" d="M400.133,117.109c-156.182,0-282.792,126.652-282.792,282.885S243.951,682.88,400.133,682.88,682.925,556.228,682.925,399.995,556.315,117.109,400.133,117.109ZM303.984,486.982H229.751V412.724h74.233Zm0-95.474H229.751V317.251h74.233Zm0-95.474H229.751V221.777h74.233Z"/></svg>
